Source Code/mun/assets/flags/BEN.svg

<svg viewBox="0 0 40.5 40.5" xmlns="http://www.w3.org/2000/svg"><path d="m40.5 20.25a20.24 20.24 0 0 1 -9.91 17.4 1.91 1.91 0 0 1 -.21.14 20.21 20.21 0 0 1 -10.13 2.71 19.92 19.92 0 0 1 -6.07-.93v-19.32z" fill="#e8112d"/><path d="m40.5 20.25h-26.32v-19.32a19.92 19.92 0 0 1 6.07-.93 20.33 20.33 0 0 1 10.13 2.7l.24.15a20.38 20.38 0 0 1 9.07 11.73 20 20 0 0 1 .81 5.67z" fill="#fcd116"/><path d="m14.18.93v38.64a19.37 19.37 0 0 1 -4-1.78 1.35 1.35 0 0 1 -.22-.14 20.24 20.24 0 0 1 -9.96-17.4 20 20 0 0 1 .81-5.67 20.38 20.38 0 0 1 9.07-11.73 2.07 2.07 0 0 1 .25-.15 19.87 19.87 0 0 1 4.05-1.77z" fill="#008751"/></svg>

<svg xmlns="http://www.w3.org/2000/svg" viewBox="0 0 40.5 40.5"><defs><style>.cls-1{fill:#e8112d;}.cls-2{fill:#fcd116;}.cls-3{fill:#008751;}</style></defs><g id="Ebene_2" data-name="Ebene 2"><g id="Ńëîé_1" data-name="Ńëîé 1"><path class="cls-1" d="M40.5,20.25a20.24,20.24,0,0,1-9.91,17.4,1.91,1.91,0,0,1-.21.14A20.21,20.21,0,0,1,20.25,40.5a19.92,19.92,0,0,1-6.07-.93V20.25Z"/><path class="cls-2" d="M40.5,20.25H14.18V.93A19.92,19.92,0,0,1,20.25,0,20.33,20.33,0,0,1,30.38,2.7l.24.15a20.38,20.38,0,0,1,9.07,11.73A20,20,0,0,1,40.5,20.25Z"/><path class="cls-3" d="M14.18.93V39.57a19.37,19.37,0,0,1-4-1.78,1.35,1.35,0,0,1-.22-.14A20.24,20.24,0,0,1,0,20.25a20,20,0,0,1,.81-5.67A20.38,20.38,0,0,1,9.88,2.85a2.07,2.07,0,0,1,.25-.15A19.87,19.87,0,0,1,14.18.93Z"/></g></g></svg>
